X:6
T:Tringham's Fancy, or Recruiting Serjeant
M: C|
L:1/8
B:Thompson's Compleat Collection of 200 Favourite Country Dances, vol. 3 (London, 1773)
Z:Transcribed and edited by Flynn Titford-Mock, 2007
Z:abc's:AK/Fiddler's Companion
K:G
B/c/ | dBAB G2 AB | cAFA D2 Ac | Bgfe dcBA | G2 GG G3::(B/c/) | dBec d3 B/c/ | dBec d3B/c/ |
dBgf edcB | A2 AA A3 (B/c/) | dBAB G2 AB | cAFA D2 Ac | Bgfe dcBA | G2 GG G3 :|

